X:7
T:The Dynamic Reel
M:4/4
L:1/8
R:Reel
C:Gris Sanderson
Q:400
N:If you are ever near Poitiers in France and feel inclined, go 
N:and visit the Futuroscope, a museum of the moving image - it 
N:has the biggest video wall in Europe, a 360 degree cinema etc. 
N:I went into the Dynamic cinema and came out with my hair 
N:literally standing on end. I wrote this reel to commemorate  
N:thisextraordinary event. Originally I used the scordatura 
N:tuning A,DAd. It's on the Spyka album.
K:Bm
A||B2aB gBfB|cdd cdd Bd|e3e cAef|eAcd cAeA|
B2aB gBfB|cdd cdd Bd|e3e cAef|eAcA FAEC|
B,2AB, GB,FB,|CDD CDD B,D|E3E CA,EF|EA,CD CA,EA,|
B,2AB, GB,FB,|CDD CDD B,D|E3E CA,EF|EA,B,D DEFD||
|:EFGF- FDEF|GBB FBB DF|E2E2DEFE-|EDEF GFED|
EFGF- FDEF|GBB FBB DF|Bdda feed|cdd fdd cd:||
